X: 1
T: The Salvation
R: reel
M: 4/4
L: 1/8
K: Amaj
EGAE GAEG|~A2cA BAFA|~B3c BAFA|dBcA BAFA|
EGAE GAEG|A2cA BAFA|~c3A BAFA|EFAB cAA2:||
|:BceB ceAe|~f3e cBB2|~f3e ~f3g|abaf ecBA|
cdec defg|abaf efc2|fecA B2AB|cBAE F4:||


Tune 199	Setting 12861

